X: 42996
T: Willie's Fiddle
R: jig
M: 6/8
K: Gmajor
|:DEF GBG|DEF G2 G|AGA ~c3|ABc d2 d|
(e/f/ge) dBG|~B3 AGE|(B/c/dB) AGE|1 DFA G3:|2 DFA G2 B||
|:def ~g3|edB G2B|dBd ~g3|eba g3|
(g/a/bg) edB|Adg dBG|(B/c/dB) AGE|1 DFA G2 B:|2 DFA G3||

